docs/images/logo-mobile.svg

<?xml version="1.0" encoding="UTF-8" standalone="no"?>
<svg xmlns="http://www.w3.org/2000/svg" height="286" width="286" preserveAspectRatio="xMidYMid" xmlns:xlink="http://www.w3.org/1999/xlink" viewBox="0 0 286 286">
 <defs>
  <style>.cls-1 {
        fill: #000;
      }
      .cls-1, .cls-2 {
        fill-rule: evenodd;
      }
      .cls-2 {
        fill: #fff;
      }</style>
 </defs>
 <path d="m0.001 49.866v236.13l286-49v-237l-286 49.866z" class="cls-1"/>
 <path d="m207 155.97c0 15.54-6.21 25.37-14.91 32.69-8.68 7.36-22.2 12.61-34.77 14.78l-78.325 13.56v-31.68l12.615-2.11v-70.72l-12.615 2.11v-31.678l67.695-11.703c11.6-1.991 24.16-3.218 33.81-1.015 9.67 2.202 19.72 10.154 19.72 25.714 0 15.552-10.05 27.992-18.75 32.992 15.46 1.59 25.53 11.51 25.53 27.06zm-53.55-52.29c-2.89-1.45-4.82-1.11-9.66-0.28l-8.7 1.52v19.43l8.7-1.5c4.84-0.85 6.77-1.38 9.66-3.81 2.9-2.47 3.87-4.96 3.87-8.26 0-3.5-0.97-5.67-3.87-7.1zm5.81 47.95c-2.91-1.43-4.84-1.49-9.67-0.63l-14.5 2.5v21.37l14.5-2.51c4.83-0.84 6.76-1.76 9.67-4.21 2.88-2.47 3.86-5.55 3.86-8.84 0-3.49-0.98-6.25-3.86-7.68z" class="cls-2"/>
</svg>

<svg xmlns="http://www.w3.org/2000/svg" xmlns:xlink="http://www.w3.org/1999/xlink" preserveAspectRatio="xMidYMid" width="286" height="286" viewBox="0 0 286 286">
  <defs>
    <style>
      .cls-1 {
        fill: #000;
      }

      .cls-1, .cls-2 {
        fill-rule: evenodd;
      }

      .cls-2 {
        fill: #fff;
      }
    </style>
  </defs>
  <path d="M0.001,49.866 L0.001,285.998 L285.998,236.998 L285.998,0.001 L0.001,49.866 Z" class="cls-1"/>
  <path d="M207.002,155.966 C207.002,171.507 200.792,181.339 192.089,188.656 C183.407,196.016 169.886,201.274 157.322,203.442 L78.995,216.999 L78.995,185.318 L91.610,183.209 L91.610,112.488 L78.995,114.598 L78.995,82.922 L146.690,71.219 C158.287,69.228 170.849,68.001 180.505,70.204 C190.173,72.406 200.218,80.358 200.218,95.918 C200.218,111.466 190.173,123.907 181.469,128.909 C196.931,130.495 207.002,140.415 207.002,155.966 ZM153.453,103.677 C150.559,102.228 148.632,102.567 143.791,103.403 L135.093,104.921 L135.093,124.348 L143.791,122.847 C148.632,122.005 150.559,121.474 153.453,119.042 C156.351,116.567 157.322,114.075 157.322,110.780 C157.322,107.285 156.351,105.113 153.453,103.677 ZM159.255,151.630 C156.351,150.195 154.423,150.143 149.594,150.998 L135.093,153.504 L135.093,174.871 L149.594,172.358 C154.423,171.522 156.351,170.596 159.255,168.147 C162.142,165.681 163.119,162.601 163.119,159.311 C163.119,155.825 162.142,153.057 159.255,151.630 Z" class="cls-2"/>
</svg>
